frontend/src/components/resources/cards/9H.svg

<svg xmlns="http://www.w3.org/2000/svg" xmlns:xlink="http://www.w3.org/1999/xlink" class="9H_svg__card" height="336" preserveAspectRatio="none" viewBox="-106 -164.5 212 329" width="216"><symbol id="9H_svg__b" viewBox="-600 -600 1200 1200" preserveAspectRatio="xMinYMid"><path d="M0-300c0-100 100-200 200-200s200 100 200 250C400 0 0 400 0 500 0 400-400 0-400-250c0-150 100-250 200-250S0-400 0-300z" fill="red"/></symbol><symbol id="9H_svg__a" viewBox="-500 -500 1000 1000" preserveAspectRatio="xMinYMid"><path d="M250-100a250 250 0 01-500 0v-110a250 250 0 01500 0v420A250 250 0 010 460c-150 0-180-60-200-85" stroke="red" stroke-width="80" stroke-linecap="square" stroke-miterlimit="1.5" fill="none"/></symbol><rect width="211" height="328" x="-105.5" y="-164" rx="12" ry="12" fill="#fff" stroke="#000"/><use xlink:href="#9H_svg__a" height="32" x="-100.4" y="-152.5"/><use xlink:href="#9H_svg__b" height="26.769" x="-97.784" y="-115.5"/><use xlink:href="#9H_svg__b" height="54" x="-72.167" y="-130.667"/><use xlink:href="#9H_svg__b" height="54" x="18.167" y="-130.667"/><use xlink:href="#9H_svg__b" height="54" x="-72.167" y="-61.555"/><use xlink:href="#9H_svg__b" height="54" x="18.167" y="-61.555"/><use xlink:href="#9H_svg__b" height="54" x="-27" y="-27"/><g transform="rotate(180)"><use xlink:href="#9H_svg__a" height="32" x="-100.4" y="-152.5"/><use xlink:href="#9H_svg__b" height="26.769" x="-97.784" y="-115.5"/><use xlink:href="#9H_svg__b" height="54" x="-72.167" y="-130.667"/><use xlink:href="#9H_svg__b" height="54" x="18.167" y="-130.667"/><use xlink:href="#9H_svg__b" height="54" x="-72.167" y="-61.555"/><use xlink:href="#9H_svg__b" height="54" x="18.167" y="-61.555"/></g></svg>

<?xml version="1.0" encoding="UTF-8" standalone="no"?>
<svg xmlns="http://www.w3.org/2000/svg" xmlns:xlink="http://www.w3.org/1999/xlink" class="card" face="9H" height="3.5in" preserveAspectRatio="none" viewBox="-106 -164.5 212 329" width="2.25in"><symbol id="SH9" viewBox="-600 -600 1200 1200" preserveAspectRatio="xMinYMid"><path d="M0 -300C0 -400 100 -500 200 -500C300 -500 400 -400 400 -250C400 0 0 400 0 500C0 400 -400 0 -400 -250C-400 -400 -300 -500 -200 -500C-100 -500 0 -400 -0 -300Z" fill="red"></path></symbol><symbol id="VH9" viewBox="-500 -500 1000 1000" preserveAspectRatio="xMinYMid"><path d="M250 -100A250 250 0 0 1 -250 -100L-250 -210A250 250 0 0 1 250 -210L250 210A250 250 0 0 1 0 460C-150 460 -180 400 -200 375" stroke="red" stroke-width="80" stroke-linecap="square" stroke-miterlimit="1.5" fill="none"></path></symbol><rect width="211" height="328" x="-105.5" y="-164" rx="12" ry="12" fill="white" stroke="black"></rect><use xlink:href="#VH9" height="32" x="-100.4" y="-152.5"></use><use xlink:href="#SH9" height="26.769" x="-97.784" y="-115.5"></use><use xlink:href="#SH9" height="54" x="-72.167" y="-130.667"></use><use xlink:href="#SH9" height="54" x="18.167" y="-130.667"></use><use xlink:href="#SH9" height="54" x="-72.167" y="-61.555"></use><use xlink:href="#SH9" height="54" x="18.167" y="-61.555"></use><use xlink:href="#SH9" height="54" x="-27" y="-27"></use><g transform="rotate(180)"><use xlink:href="#VH9" height="32" x="-100.4" y="-152.5"></use><use xlink:href="#SH9" height="26.769" x="-97.784" y="-115.5"></use><use xlink:href="#SH9" height="54" x="-72.167" y="-130.667"></use><use xlink:href="#SH9" height="54" x="18.167" y="-130.667"></use><use xlink:href="#SH9" height="54" x="-72.167" y="-61.555"></use><use xlink:href="#SH9" height="54" x="18.167" y="-61.555"></use></g></svg>
